epam-assets/icon-sources/18/internal-logo/recognition.svg

<svg width="18" height="18" viewBox="0 0 18 18" fill="none" xmlns="http://www.w3.org/2000/svg">
<g id="18/internal-logo/recognition">
<path id="icon" fill-rule="evenodd" clip-rule="evenodd" d="M13.3677 7.0147V4.23528H14.5589C14.5589 5.42646 14.1618 6.61764 13.3677 7.0147ZM10.4799 8.52188L9.00006 7.58929L7.52022 8.52188L7.94021 6.81135L6.6052 5.67725L8.34501 5.55277L9.00006 3.91937L9.65471 5.55277L11.3945 5.67725L10.0595 6.81135L10.4799 8.52188ZM4.63231 7.0147C3.8382 6.61764 3.44114 5.42646 3.44114 4.23528H4.63231V7.0147ZM14.5588 3.04412H14.1618C14.1439 3.04392 14.0878 3.04484 14.013 3.04606C13.7935 3.04966 13.4133 3.05589 13.3676 3.04412V2.25H4.63235V3.04412H3.44118C2.64706 3.04412 2.25 3.75317 2.25 4.23529C2.25 6.04519 2.93066 7.49683 4.23529 8.17263C4.57569 8.34885 4.6532 8.57075 4.74297 8.82773C4.80399 9.0024 4.87067 9.19328 5.02941 9.39706C5.71007 10.5598 6.58926 11.354 9 11.354C11.4107 11.354 12.1765 10.5882 12.9706 9.39706C13.4297 8.70849 13.4541 8.6872 14.2944 7.95305L14.3762 7.88158C14.9538 7.37672 15.4616 6.80446 15.5908 6.04826C15.728 5.24441 15.7316 5.07726 15.7489 4.28536L15.75 4.23529C15.75 3.75317 15.3529 3.04412 14.5588 3.04412ZM10.9854 14.1618H7.01482C6.2207 14.1618 5.42659 14.9559 5.42659 15.75H12.5736C12.5736 14.9559 11.7795 14.1618 10.9854 14.1618ZM10.5882 12.7721C10.5882 13.0997 10.3202 13.3677 9.99259 13.3677H8.0073C7.67972 13.3677 7.41171 13.0997 7.41171 12.7721C7.41171 12.4445 7.67972 12.1765 8.0073 12.1765H9.99259C10.3202 12.1765 10.5882 12.4445 10.5882 12.7721Z" fill="#6C6F80"/>
</g>
</svg>

<svg xmlns="http://www.w3.org/2000/svg" width="18" height="18" fill="none" viewBox="0 0 18 18">
  <path fill="#6C6F80" fill-rule="evenodd" d="M13.368 7.015v-2.78h1.19c0 1.191-.396 2.383-1.19 2.78ZM10.48 8.522 9 7.589l-1.48.933.42-1.71-1.335-1.135 1.74-.124L9 3.919l.655 1.634 1.74.124-1.335 1.134.42 1.71ZM4.632 7.015c-.794-.397-1.19-1.589-1.19-2.78h1.19v2.78Zm9.927-3.97h-.397c-.018-.001-.074 0-.149.001-.22.004-.6.01-.645-.002V2.25H4.632v.794h-1.19c-.795 0-1.192.71-1.192 1.191 0 1.81.68 3.262 1.985 3.938.34.176.418.398.508.655.061.174.128.365.286.57C5.71 10.56 6.59 11.353 9 11.353s3.177-.766 3.97-1.957c.46-.689.484-.71 1.324-1.444l.082-.071c.578-.505 1.086-1.078 1.215-1.834.137-.804.14-.97.158-1.763l.001-.05c0-.482-.397-1.19-1.191-1.19Zm-3.574 11.117h-3.97c-.794 0-1.588.794-1.588 1.588h7.147c0-.794-.794-1.588-1.589-1.588Zm-.397-1.39a.597.597 0 0 1-.595.596H8.007a.597.597 0 0 1-.595-.596c0-.328.268-.595.595-.595h1.986c.327 0 .595.268.595.595Z" clip-rule="evenodd"/>
</svg>
